X:332
T: IN WARSCHAU SCHWUREN TAUSEND
N: F0569
O: Europa, Mitteleuropa, Deutschland
R: Soldaten -, Kriegs - Lied, Niederlage
M: 4/4
L: 1/16
K: Ab
EE3E | c6A2E3EA3c | e2c2A4z2
c2B2=A2 | B6B2c2B2A2F2 | E4z4z3
EE3E | B6F2D2F2B2c2 | d3cB4z2
B2c2d2 | c6c2c3C=D3=E | F4z6
c2B2A2 | B6E2E3EE3E | c4z6
A2A2A2 | e2d2B2G2E2D2C2B,2 | A,4z4z3

@@@ Tune index: 5763
